build/system/EmailReadOutline.svg

<svg xmlns="http://www.w3.org/2000/svg" fill="none" viewBox="0 0 24 24" focusable="false"><path d="M0 0H24V24H0z"/><path fill="#74767B" fill-rule="evenodd" d="M19.7637 8.41687L14.1008 4.21825C12.7943 3.24958 11.0038 3.26181 9.71069 4.24824L4.43721 8.27992C3.57452 8.80565 3 9.75455 3 10.8405L3 17.5027C3 19.1612 4.34 20.5 6 20.5L18 20.5C19.66 20.5 21 19.1612 21 17.5027L21 10.8405C21 9.84314 20.5118 8.96138 19.7637 8.41687ZM13.3261 5.26128C12.4849 4.63762 11.3322 4.64549 10.4996 5.28059C10.029 5.63955 9.54002 6.01225 9.04464 6.38982C7.68386 7.42699 6.27491 8.50088 5.06713 9.42761L10.4858 13.5069C11.3231 14.1371 12.4769 14.1371 13.3142 13.5069L18.8384 9.34819L13.3261 5.26128ZM19.6354 10.3745L15.3527 13.5985L17.9233 15.5309C18.2101 15.7465 18.2677 16.1537 18.0519 16.4403C17.8361 16.7269 17.4286 16.7844 17.1417 16.5688L14.2724 14.4118L14.0965 14.5442C12.7961 15.5232 11.0039 15.5232 9.70352 14.5442L9.52769 14.4118L6.65838 16.5688C6.37152 16.7844 5.96401 16.7269 5.74818 16.4403C5.53235 16.1537 5.58993 15.7465 5.87678 15.5309L8.44734 13.5985L4.33371 10.5018C4.3116 10.6112 4.3 10.7245 4.3 10.8405L4.3 17.5027C4.3 18.4418 5.06 19.2012 6 19.2012L18 19.2012C18.94 19.2012 19.7 18.4418 19.7 17.5027L19.7 10.8405C19.7 10.6789 19.6775 10.5225 19.6354 10.3745Z"/></svg>

<svg xmlns="http://www.w3.org/2000/svg" fill="none" viewBox="0 0 24 24" focusable="false"><path fill="#74767B" fill-rule="evenodd" d="m19.76 8.41-5.66-4.2a3.66 3.66 0 0 0-4.39.03L4.43 8.27C3.57 8.8 3 9.75 3 10.84v6.66c0 1.66 1.33 3 3 3h12c1.66 0 3-1.34 3-3v-6.66c0-1-.49-1.88-1.24-2.43m-6.44-3.15a2.34 2.34 0 0 0-2.83.02c-.47.35-.95.73-1.45 1.1C7.68 7.42 6.27 8.5 5.06 9.42l5.42 4.08c.84.63 1.99.63 2.83 0l5.52-4.16zm6.31 5.11-4.28 3.22 2.57 1.94c.28.21.34.62.13.91-.22.28-.63.34-.91.12l-2.87-2.15-.18.13c-1.3.98-3.09.98-4.39 0l-.18-.13-2.87 2.15c-.28.22-.69.16-.91-.12-.21-.29-.16-.7.13-.91l2.57-1.94-4.11-3.09c-.02.11-.04.22-.04.34v6.66c0 .94.77 1.7 1.71 1.7h12c.93 0 1.7-.76 1.7-1.7v-6.66c0-.17-.03-.32-.07-.47"/></svg>
